icons/linear-ele-other-truck.svg

<svg xmlns="http://www.w3.org/2000/svg" width="32px" height="32px" viewBox="0 0 32 32" version="1.1">
    <title>linear-ele-other-truck</title>
    <g id="linear-ele-other-truck" stroke-width="1" fill-rule="evenodd">
        <path d="M21,5 C21.5522847,5 22,5.44771525 22,6 L22,9 L27,9 C27.4832861,9 27.8974171,9.34562387 27.9838699,9.82111456 L29.9838699,20.8211146 C30.0954773,21.434955 29.6239041,22 29,22 L25.9725684,22.000297 C25.9906946,22.1643682 26,22.3310974 26,22.5 C26,24.9852814 23.9852814,27 21.5,27 C19.0147186,27 17,24.9852814 17,22.5 C17,22.3310974 17.0093054,22.1643682 17.0274316,22.000297 L12.9725684,22.000297 C12.9906946,22.1643682 13,22.3310974 13,22.5 C13,24.9852814 10.9852814,27 8.5,27 C6.01471863,27 4,24.9852814 4,22.5 C4,22.3310974 4.00930542,22.1643682 4.02743156,22.000297 L3,22 C2.44771525,22 2,21.5522847 2,21 L2,6 C2,5.44771525 2.44771525,5 3,5 L21,5 Z M8.5,20 C7.11928813,20 6,21.1192881 6,22.5 C6,23.8807119 7.11928813,25 8.5,25 C9.88071187,25 11,23.8807119 11,22.5 C11,21.1192881 9.88071187,20 8.5,20 Z M21.5,20 C20.1192881,20 19,21.1192881 19,22.5 C19,23.8807119 20.1192881,25 21.5,25 C22.8807119,25 24,23.8807119 24,22.5 C24,21.1192881 22.8807119,20 21.5,20 Z M27.074,16 L22,16 L22.0007074,18.0275426 C23.3519994,18.1771362 24.5228966,18.9250682 25.24256,20.0004998 L27.802,20 L27.074,16 Z M20,7 L4,7 L4,20 L4.75744,20.0004998 C5.56465605,18.7942336 6.93957642,18 8.5,18 C10.0604236,18 11.435344,18.7942336 12.24256,20.0004998 L17.75744,20.0004998 C18.2925608,19.2008402 19.0771675,18.5822544 20,18.2560892 L20,7 Z M26.165,11 L22,11 L22,14 L26.711,14 L26.165,11 Z" id="&#24418;&#29366;" fill-rule="nonzero" />
    </g>
</svg>

<svg xmlns="http://www.w3.org/2000/svg" viewBox="0 0 32 32"><path fill="currentColor" d="M21 5a1 1 0 0 1 1 1v3h5a1 1 0 0 1 .984.821l2 11A1 1 0 0 1 29 22h-3.027a4.5 4.5 0 1 1-8.945 0h-4.055a4.5 4.5 0 1 1-8.945 0H3a1 1 0 0 1-1-1V6a1 1 0 0 1 1-1zM8.5 20a2.5 2.5 0 1 0 0 5 2.5 2.5 0 0 0 0-5m13 0a2.5 2.5 0 1 0 0 5 2.5 2.5 0 0 0 0-5m5.574-4H22v2.028A4.499 4.499 0 0 1 25.244 20h2.559zM20 7H4v13h.757A4.496 4.496 0 0 1 8.5 18c1.56 0 2.935.794 3.743 2h5.514A4.513 4.513 0 0 1 20 18.256zm6.165 4H22v3h4.711z"/></svg>
